neogeocd/_inc/system.svg

<svg xmlns="http://www.w3.org/2000/svg"><g fill="#fff"><path d="m0 313.731c0-.855 1.282-1.816 2.885-2.244 5.77-1.389 5.664-1.068 5.664-28.317v-25.539l-2.779-2.137c-1.603-1.282-3.526-2.244-4.274-2.244-.855 0-1.496-.427-1.496-1.068s4.702-1.069 12.075-.962h11.968l14.425 18.059 14.426 18.165.321-14.105c.32-15.708-.642-18.593-6.198-19.768-6.625-1.282-2.778-2.458 8.014-2.458 10.793 0 14.64 1.282 8.549 2.778-5.664 1.39-5.877 2.885-5.877 33.233 0 22.974-.214 28.103-1.496 28.103-.748 0-9.724-10.151-19.983-22.654-10.258-12.502-19.448-23.615-20.409-24.897-1.817-2.03-1.817-1.069-1.924 18.914 0 23.081.214 23.829 6.519 25.111 1.709.32 3.098 1.282 3.098 2.03 0 1.175-2.457 1.496-11.754 1.496-9.296 0-11.754-.321-11.754-1.496z"/><path d="m68.388 313.624c0-.961.962-1.603 2.458-1.603 1.389 0 3.419-.641 4.595-1.496 1.923-1.496 2.03-2.992 2.03-27.889 0-24.898-.107-26.394-2.03-27.89-1.176-.855-3.206-1.496-4.595-1.496s-2.458-.427-2.458-1.068 9.831-1.069 27.249-1.069h27.248v9.617c0 7.587-.32 9.617-1.496 9.617-.855 0-1.816-1.389-2.244-3.205-1.71-7.694-8.228-11.755-18.7-11.755h-6.411v11.755 11.754h2.671c3.847 0 7.801-4.381 8.656-9.51.427-2.672 1.282-4.382 2.137-4.382 1.175 0 1.496 3.313 1.496 17.098 0 13.784-.321 17.097-1.496 17.097-.855 0-1.71-1.71-2.137-4.382-.748-5.022-5.557-10.578-9.083-10.578-2.137 0-2.244.534-2.244 11.54 0 7.587.427 11.968 1.282 12.823 1.71 1.71 12.93 1.603 17.204-.214 4.061-1.603 10.045-8.121 11.006-11.861.641-2.671 3.633-3.847 3.633-1.389 0 1.282-1.923 13.678-2.778 17.738l-.427 2.351h-27.783c-23.936 0-27.783-.214-27.783-1.603z"/><path d="m155.69 313.731c-16.67-6.198-24.791-24.043-19.341-42.315 2.244-7.587 11.434-16.99 19.021-19.555 6.732-2.351 19.982-2.351 26.607-.107 6.518 2.244 14.105 8.976 17.631 15.815 3.74 7.266 4.061 20.944.534 28.531-2.885 6.411-9.189 13.357-14.639 16.242-5.556 2.885-23.508 3.74-29.813 1.389zm20.196-4.808c1.817-1.069 4.381-4.275 5.877-7.16 2.244-4.702 2.565-6.625 2.565-19.127s-.214-14.426-2.565-19.021c-6.091-12.395-19.768-12.395-25.966.107-2.137 4.488-2.458 6.518-2.458 18.914 0 12.502.214 14.425 2.565 19.02 4.274 8.656 12.609 11.755 19.982 7.267z"/><path d="m255.281 313.838c-19.342-7.159-27.676-27.569-18.7-45.414 3.419-6.732 12.074-14.533 18.486-16.67 7.159-2.457 20.837-2.244 28.744.428l6.305 2.244 1.816-2.244c3.313-4.168 4.061-2.565 4.061 9.082 0 12.61-1.389 14.533-4.809 6.946-4.06-8.976-13.57-14.639-22.653-13.571-12.075 1.283-18.486 13.571-17.097 32.912 1.175 17.845 9.937 25.753 25.218 22.761l3.312-.641v-8.335c0-8.869-1.496-11.755-6.197-11.755-1.283 0-2.351-.427-2.351-1.068s6.091-1.069 16.028-1.069c8.869 0 16.029.321 16.029.855 0 .428-1.603 1.496-3.526 2.351l-3.42 1.603-.32 9.19-.321 9.189-5.557 1.924c-7.266 2.564-29.492 3.312-35.048 1.282z"/><path d="m304.541 313.624c0-.961.962-1.603 2.458-1.603 1.389 0 3.42-.641 4.595-1.496 1.923-1.496 2.03-2.992 2.03-27.889 0-24.898-.107-26.394-2.03-27.89-1.175-.855-3.206-1.496-4.595-1.496s-2.458-.427-2.458-1.068 9.831-1.069 27.249-1.069h27.248v9.617c0 7.587-.32 9.617-1.496 9.617-.855 0-1.816-1.389-2.244-3.205-1.709-7.694-8.228-11.755-18.7-11.755h-6.411v11.755 11.754h2.671c3.847 0 7.801-4.381 8.656-9.51.427-2.672 1.282-4.382 2.137-4.382 1.175 0 1.496 3.313 1.496 17.098 0 13.784-.321 17.097-1.496 17.097-.855 0-1.71-1.71-2.137-4.382-.748-5.022-5.557-10.578-9.083-10.578-2.137 0-2.244.534-2.244 11.54 0 7.587.427 11.968 1.282 12.823 1.71 1.71 12.93 1.603 17.204-.214 4.061-1.603 10.045-8.121 11.006-11.861.642-2.671 3.634-3.847 3.634-1.389 0 1.282-1.924 13.678-2.779 17.738l-.427 2.351h-27.783c-23.936 0-27.783-.214-27.783-1.603z"/><path d="m391.843 313.731c-16.669-6.198-24.79-24.043-19.341-42.315 2.244-7.587 11.434-16.99 19.021-19.555 6.732-2.351 19.982-2.351 26.607-.107 6.518 2.244 14.105 8.976 17.631 15.815 3.74 7.266 4.061 20.944.535 28.531-2.885 6.411-9.19 13.357-14.64 16.242-5.556 2.885-23.508 3.74-29.813 1.389zm20.196-4.808c1.817-1.069 4.381-4.275 5.877-7.16 2.244-4.702 2.565-6.625 2.565-19.127s-.214-14.426-2.565-19.021c-6.091-12.395-19.768-12.395-25.966.107-2.137 4.488-2.458 6.518-2.458 18.914 0 12.502.214 14.425 2.565 19.02 4.274 8.656 12.609 11.755 19.982 7.267z"/><path d="m488.869 313.09c-7.587-2.992-12.716-7.587-16.242-14.746-2.565-5.129-2.992-7.373-2.992-14.64 0-13.998 6.304-24.149 18.914-30.454 5.556-2.778 7.693-3.205 14.746-3.205 5.449 0 10.258.748 14.532 2.137l6.305 2.244 1.816-2.244c3.313-4.168 4.061-2.565 4.061 9.082 0 8.976-.321 11.22-1.496 11.22-.855 0-1.817-1.389-2.244-2.992-.855-3.953-6.198-10.472-10.472-12.609-4.167-2.244-12.289-2.244-16.349-.107-7.373 3.847-11.327 11.114-11.968 22.334-.855 14.318 3.313 25.431 10.792 28.958 7.908 3.847 19.342 1.389 25.753-5.557 3.954-4.167 4.915-4.167 4.915-.214 0 3.634-4.274 7.801-11.22 10.9-5.984 2.778-21.478 2.671-28.851-.107z"/><path d="m536.42 313.838c0-1.175.855-1.817 2.458-1.817 1.389 0 3.313-.854 4.274-1.923 1.603-1.71 1.817-5.236 1.817-27.783 0-25.432 0-25.752-2.351-27.355-1.282-.962-3.206-1.71-4.274-1.71-1.069 0-1.924-.427-1.924-1.068 0-1.389 37.721-1.389 42.957 0 6.732 1.923 13.784 7.48 17.31 13.891 3.099 5.45 3.313 6.625 3.313 16.563 0 9.617-.321 11.22-2.885 16.242-3.42 6.411-8.121 10.258-16.029 13.357-4.594 1.71-9.189 2.244-25.111 2.671-17.738.642-19.555.535-19.555-1.068zm39.644-7.801c1.71-1.709 3.847-5.342 4.702-8.334 1.923-6.198 2.137-21.799.427-27.89-2.351-8.655-9.189-14.426-16.99-14.426h-3.206v25.967c0 19.341.321 26.286 1.389 27.355 2.244 2.351 10.045.748 13.678-2.672z"/><path d="m212.11 288.513c-1.175-1.282-2.03-3.847-2.03-5.877 0-5.022 2.992-8.014 8.014-8.014 5.023 0 8.442 3.205 8.442 8.014 0 1.923-.962 4.381-2.137 5.663-2.992 3.099-9.617 3.206-12.289.214z"/><path d="m150.454 202.707-36.117-35.476v-53.001-52.894l30.881-30.668c16.99-16.883 31.523-30.668 32.271-30.668.855 0 17.097 15.601 36.224 34.728l34.729 34.622 26.18-26.073 26.179-26.18h47.017l47.017.107 31.202 30.133 31.203 30.134v46.59l.106 46.482-11.968 11.754c-24.683 23.829-49.795 47.445-50.863 47.445-.535 0-11.541-10.793-24.47-24.043l-23.509-23.936-27.462 28.21-27.569 28.317h-52.467l-52.573-.107zm161.781-.962 26.394-27.034-21.692-21.799-21.799-21.799-28.103-.641-28.21-.641-.321-25.539c-.107-15.387.107-25.966.748-26.714.748-.962-7.907-10.258-30.134-32.484l-31.202-31.203-27.034 26.501-27.035 26.393v47.445l.107 47.337 33.873 33.553 33.981 33.446 47.017.107 47.016.107zm84.844-28.637 9.724-1.283 1.924-10.151c.961-5.556 2.35-10.258 3.098-10.472.642-.214 3.847-.641 7.267-1.068l5.984-.642 1.175-6.732c1.069-6.304.962-7.8-2.564-21.585-2.031-8.228-3.74-15.066-3.74-15.173 0-.855-24.898 4.488-26.501 5.663-.107.107.534 3.526 1.496 7.694 1.603 6.625 1.603 8.121.321 13.678l-1.496 6.197-10.152 4.595c-5.556 2.565-10.578 4.809-11.22 5.022-.641.214-.213 3.633.962 8.869 1.924 7.48 2.672 8.976 6.946 13.037 2.671 2.458 5.343 4.274 5.984 4.06.641-.213 5.449-.961 10.792-1.709zm-60.374-69.778c.428-.534 1.069-3.953 1.389-7.586.428-3.527 1.069-7.587 1.283-8.87.534-1.923-.535-2.885-6.305-6.09-6.625-3.74-6.946-3.847-12.716-2.672l-5.877 1.176-1.389 9.082-1.282 8.976 5.663 5.13 5.663 5.129 6.412-1.603c3.633-.962 6.839-2.137 7.159-2.672zm30.241-36.651 2.992-3.847-1.924-4.275c-1.068-2.35-2.885-4.594-4.06-5.129-6.625-2.457-6.519-2.457-8.869 3.206-3.527 8.228-.855 13.571 6.625 13.785 1.175.106 3.419-1.496 5.236-3.74z"/><path d="m210.828 199.822c-6.091-1.282-8.655-2.672-13.891-7.801-5.343-5.129-6.412-8.548-1.603-5.449 10.686 6.945 32.912 4.381 45.2-5.343 5.664-4.488 6.198-5.236 9.831-15.815 2.137-5.984 4.381-12.93 4.916-15.28 1.175-4.488 3.846-9.083 5.342-9.083 1.603 0 2.351 15.601 1.176 22.974-1.496 9.617-4.809 17.097-11.006 25.111-6.839 8.656-11.434 10.793-25.219 11.327-5.663.214-12.288-.107-14.746-.641z"/><path d="m157.934 127.801c-3.74-3.206-5.556-8.122-3.099-8.122.535 0 1.283-.854 1.603-1.923.855-2.565 6.305-4.488 10.899-3.74 2.886.534 4.382 1.603 6.412 4.702 1.389 2.244 2.564 4.381 2.564 4.701 0 .214-1.816 2.138-3.953 4.275-5.343 4.808-9.083 4.915-14.426.107z"/><path d="m198.219 103.651c-1.496-2.351-3.526-5.877-4.381-7.801-1.71-3.526-1.603-3.633 2.458-9.617 2.35-3.526 4.594-5.77 5.449-5.556.855.32 3.527.534 6.091.534 4.595 0 4.702.107 9.51 7.373l5.023 7.373-4.061 5.984-4.06 5.984h-6.626c-6.625 0-6.732 0-9.403-4.274z"/></g></svg>

<?xml version="1.0" encoding="utf-8"?>
<svg version="1.0" xmlns="http://www.w3.org/2000/svg">
  <path d="M 0 313.731 C 0 312.876 1.282 311.915 2.885 311.487 C 8.655 310.098 8.549 310.419 8.549 283.17 L 8.549 257.631 L 5.77 255.494 C 4.167 254.212 2.244 253.25 1.496 253.25 C 0.641 253.25 0 252.823 0 252.182 C 0 251.541 4.702 251.113 12.075 251.22 L 24.043 251.22 L 38.468 269.279 L 52.894 287.444 L 53.215 273.339 C 53.535 257.631 52.573 254.746 47.017 253.571 C 40.392 252.289 44.239 251.113 55.031 251.113 C 65.824 251.113 69.671 252.395 63.58 253.891 C 57.916 255.281 57.703 256.776 57.703 287.124 C 57.703 310.098 57.489 315.227 56.207 315.227 C 55.459 315.227 46.483 305.076 36.224 292.573 C 25.966 280.071 16.776 268.958 15.815 267.676 C 13.998 265.646 13.998 266.607 13.891 286.59 C 13.891 309.671 14.105 310.419 20.41 311.701 C 22.119 312.021 23.508 312.983 23.508 313.731 C 23.508 314.906 21.051 315.227 11.754 315.227 C 2.458 315.227 0 314.906 0 313.731 Z" style="fill: rgb(255, 255, 255);"/>
  <path d="M 68.388 313.624 C 68.388 312.663 69.35 312.021 70.846 312.021 C 72.235 312.021 74.265 311.38 75.441 310.525 C 77.364 309.029 77.471 307.533 77.471 282.636 C 77.471 257.738 77.364 256.242 75.441 254.746 C 74.265 253.891 72.235 253.25 70.846 253.25 C 69.457 253.25 68.388 252.823 68.388 252.182 C 68.388 251.541 78.219 251.113 95.637 251.113 L 122.885 251.113 L 122.885 260.73 C 122.885 268.317 122.565 270.347 121.389 270.347 C 120.534 270.347 119.573 268.958 119.145 267.142 C 117.435 259.448 110.917 255.387 100.445 255.387 L 94.034 255.387 L 94.034 267.142 L 94.034 278.896 L 96.705 278.896 C 100.552 278.896 104.506 274.515 105.361 269.386 C 105.788 266.714 106.643 265.004 107.498 265.004 C 108.673 265.004 108.994 268.317 108.994 282.102 C 108.994 295.886 108.673 299.199 107.498 299.199 C 106.643 299.199 105.788 297.489 105.361 294.817 C 104.613 289.795 99.804 284.239 96.278 284.239 C 94.141 284.239 94.034 284.773 94.034 295.779 C 94.034 303.366 94.461 307.747 95.316 308.602 C 97.026 310.312 108.246 310.205 112.52 308.388 C 116.581 306.785 122.565 300.267 123.526 296.527 C 124.167 293.856 127.159 292.68 127.159 295.138 C 127.159 296.42 125.236 308.816 124.381 312.876 L 123.954 315.227 L 96.171 315.227 C 72.235 315.227 68.388 315.013 68.388 313.624 Z" style="fill: rgb(255, 255, 255);"/>
  <path d="M 155.69 313.731 C 139.02 307.533 130.899 289.688 136.349 271.416 C 138.593 263.829 147.783 254.426 155.37 251.861 C 162.102 249.51 175.352 249.51 181.977 251.754 C 188.495 253.998 196.082 260.73 199.608 267.569 C 203.348 274.835 203.669 288.513 200.142 296.1 C 197.257 302.511 190.953 309.457 185.503 312.342 C 179.947 315.227 161.995 316.082 155.69 313.731 Z M 175.886 308.923 C 177.703 307.854 180.267 304.648 181.763 301.763 C 184.007 297.061 184.328 295.138 184.328 282.636 C 184.328 270.134 184.114 268.21 181.763 263.615 C 175.672 251.22 161.995 251.22 155.797 263.722 C 153.66 268.21 153.339 270.24 153.339 282.636 C 153.339 295.138 153.553 297.061 155.904 301.656 C 160.178 310.312 168.513 313.411 175.886 308.923 Z" style="fill: rgb(255, 255, 255);"/>
  <path d="M 255.281 313.838 C 235.939 306.679 227.605 286.269 236.581 268.424 C 240 261.692 248.655 253.891 255.067 251.754 C 262.226 249.297 275.904 249.51 283.811 252.182 L 290.116 254.426 L 291.932 252.182 C 295.245 248.014 295.993 249.617 295.993 261.264 C 295.993 273.874 294.604 275.797 291.184 268.21 C 287.124 259.234 277.614 253.571 268.531 254.639 C 256.456 255.922 250.045 268.21 251.434 287.551 C 252.609 305.396 261.371 313.304 276.652 310.312 L 279.964 309.671 L 279.964 301.336 C 279.964 292.467 278.468 289.581 273.767 289.581 C 272.484 289.581 271.416 289.154 271.416 288.513 C 271.416 287.872 277.507 287.444 287.444 287.444 C 296.313 287.444 303.473 287.765 303.473 288.299 C 303.473 288.727 301.87 289.795 299.947 290.65 L 296.527 292.253 L 296.207 301.443 L 295.886 310.632 L 290.329 312.556 C 283.063 315.12 260.837 315.868 255.281 313.838 Z" style="fill: rgb(255, 255, 255);"/>
  <path d="M 304.541 313.624 C 304.541 312.663 305.503 312.021 306.999 312.021 C 308.388 312.021 310.419 311.38 311.594 310.525 C 313.517 309.029 313.624 307.533 313.624 282.636 C 313.624 257.738 313.517 256.242 311.594 254.746 C 310.419 253.891 308.388 253.25 306.999 253.25 C 305.61 253.25 304.541 252.823 304.541 252.182 C 304.541 251.541 314.372 251.113 331.79 251.113 L 359.038 251.113 L 359.038 260.73 C 359.038 268.317 358.718 270.347 357.542 270.347 C 356.687 270.347 355.726 268.958 355.298 267.142 C 353.589 259.448 347.07 255.387 336.598 255.387 L 330.187 255.387 L 330.187 267.142 L 330.187 278.896 L 332.858 278.896 C 336.705 278.896 340.659 274.515 341.514 269.386 C 341.941 266.714 342.796 265.004 343.651 265.004 C 344.826 265.004 345.147 268.317 345.147 282.102 C 345.147 295.886 344.826 299.199 343.651 299.199 C 342.796 299.199 341.941 297.489 341.514 294.817 C 340.766 289.795 335.957 284.239 332.431 284.239 C 330.294 284.239 330.187 284.773 330.187 295.779 C 330.187 303.366 330.614 307.747 331.469 308.602 C 333.179 310.312 344.399 310.205 348.673 308.388 C 352.734 306.785 358.718 300.267 359.679 296.527 C 360.321 293.856 363.313 292.68 363.313 295.138 C 363.313 296.42 361.389 308.816 360.534 312.876 L 360.107 315.227 L 332.324 315.227 C 308.388 315.227 304.541 315.013 304.541 313.624 Z" style="fill: rgb(255, 255, 255);"/>
  <path d="M 391.843 313.731 C 375.174 307.533 367.053 289.688 372.502 271.416 C 374.746 263.829 383.936 254.426 391.523 251.861 C 398.255 249.51 411.505 249.51 418.13 251.754 C 424.648 253.998 432.235 260.73 435.761 267.569 C 439.501 274.835 439.822 288.513 436.296 296.1 C 433.411 302.511 427.106 309.457 421.656 312.342 C 416.1 315.227 398.148 316.082 391.843 313.731 Z M 412.039 308.923 C 413.856 307.854 416.42 304.648 417.916 301.763 C 420.16 297.061 420.481 295.138 420.481 282.636 C 420.481 270.134 420.267 268.21 417.916 263.615 C 411.825 251.22 398.148 251.22 391.95 263.722 C 389.813 268.21 389.492 270.24 389.492 282.636 C 389.492 295.138 389.706 297.061 392.057 301.656 C 396.331 310.312 404.666 313.411 412.039 308.923 Z" style="fill: rgb(255, 255, 255);"/>
  <path d="M 488.869 313.09 C 481.282 310.098 476.153 305.503 472.627 298.344 C 470.062 293.215 469.635 290.971 469.635 283.704 C 469.635 269.706 475.939 259.555 488.549 253.25 C 494.105 250.472 496.242 250.045 503.295 250.045 C 508.744 250.045 513.553 250.793 517.827 252.182 L 524.132 254.426 L 525.948 252.182 C 529.261 248.014 530.009 249.617 530.009 261.264 C 530.009 270.24 529.688 272.484 528.513 272.484 C 527.658 272.484 526.696 271.095 526.269 269.492 C 525.414 265.539 520.071 259.02 515.797 256.883 C 511.63 254.639 503.508 254.639 499.448 256.776 C 492.075 260.623 488.121 267.89 487.48 279.11 C 486.625 293.428 490.793 304.541 498.272 308.068 C 506.18 311.915 517.614 309.457 524.025 302.511 C 527.979 298.344 528.94 298.344 528.94 302.297 C 528.94 305.931 524.666 310.098 517.72 313.197 C 511.736 315.975 496.242 315.868 488.869 313.09 Z" style="fill: rgb(255, 255, 255);"/>
  <path d="M 536.42 313.838 C 536.42 312.663 537.275 312.021 538.878 312.021 C 540.267 312.021 542.191 311.167 543.152 310.098 C 544.755 308.388 544.969 304.862 544.969 282.315 C 544.969 256.883 544.969 256.563 542.618 254.96 C 541.336 253.998 539.412 253.25 538.344 253.25 C 537.275 253.25 536.42 252.823 536.42 252.182 C 536.42 250.793 574.141 250.793 579.377 252.182 C 586.109 254.105 593.161 259.662 596.687 266.073 C 599.786 271.523 600 272.698 600 282.636 C 600 292.253 599.679 293.856 597.115 298.878 C 593.695 305.289 588.994 309.136 581.086 312.235 C 576.492 313.945 571.897 314.479 555.975 314.906 C 538.237 315.548 536.42 315.441 536.42 313.838 Z M 576.064 306.037 C 577.774 304.328 579.911 300.695 580.766 297.703 C 582.689 291.505 582.903 275.904 581.193 269.813 C 578.842 261.158 572.004 255.387 564.203 255.387 L 560.997 255.387 L 560.997 281.354 C 560.997 300.695 561.318 307.64 562.386 308.709 C 564.63 311.06 572.431 309.457 576.064 306.037 Z" style="fill: rgb(255, 255, 255);"/>
  <path d="M 212.11 288.513 C 210.935 287.231 210.08 284.666 210.08 282.636 C 210.08 277.614 213.072 274.622 218.094 274.622 C 223.117 274.622 226.536 277.827 226.536 282.636 C 226.536 284.559 225.574 287.017 224.399 288.299 C 221.407 291.398 214.782 291.505 212.11 288.513 Z" style="fill: rgb(255, 255, 255);"/>
  <path d="M 150.454 202.707 L 114.337 167.231 L 114.337 114.23 L 114.337 61.336 L 145.218 30.668 C 162.208 13.785 176.741 0 177.489 0 C 178.344 0 194.586 15.601 213.713 34.728 L 248.442 69.35 L 274.622 43.277 L 300.801 17.097 L 347.818 17.097 L 394.835 17.204 L 426.037 47.337 L 457.24 77.471 L 457.24 124.061 L 457.346 170.543 L 445.378 182.297 C 420.695 206.126 395.583 229.742 394.515 229.742 C 393.98 229.742 382.974 218.949 370.045 205.699 L 346.536 181.763 L 319.074 209.973 L 291.505 238.29 L 239.038 238.29 L 186.465 238.183 L 150.454 202.707 Z M 312.235 201.745 L 338.629 174.711 L 316.937 152.912 L 295.138 131.113 L 267.035 130.472 L 238.825 129.831 L 238.504 104.292 C 238.397 88.905 238.611 78.326 239.252 77.578 C 240 76.616 231.345 67.32 209.118 45.094 L 177.916 13.891 L 150.882 40.392 L 123.847 66.785 L 123.847 114.23 L 123.954 161.567 L 157.827 195.12 L 191.808 228.566 L 238.825 228.673 L 285.841 228.78 L 312.235 201.745 Z M 397.079 173.108 L 406.803 171.825 L 408.727 161.674 C 409.688 156.118 411.077 151.416 411.825 151.202 C 412.467 150.988 415.672 150.561 419.092 150.134 L 425.076 149.492 L 426.251 142.76 C 427.32 136.456 427.213 134.96 423.687 121.175 C 421.656 112.947 419.947 106.109 419.947 106.002 C 419.947 105.147 395.049 110.49 393.446 111.665 C 393.339 111.772 393.98 115.191 394.942 119.359 C 396.545 125.984 396.545 127.48 395.263 133.037 L 393.767 139.234 L 383.615 143.829 C 378.059 146.394 373.037 148.638 372.395 148.851 C 371.754 149.065 372.182 152.484 373.357 157.72 C 375.281 165.2 376.029 166.696 380.303 170.757 C 382.974 173.215 385.646 175.031 386.287 174.817 C 386.928 174.604 391.736 173.856 397.079 173.108 Z M 336.705 103.33 C 337.133 102.796 337.774 99.377 338.094 95.744 C 338.522 92.217 339.163 88.157 339.377 86.874 C 339.911 84.951 338.842 83.989 333.072 80.784 C 326.447 77.044 326.126 76.937 320.356 78.112 L 314.479 79.288 L 313.09 88.37 L 311.808 97.346 L 317.471 102.476 L 323.134 107.605 L 329.546 106.002 C 333.179 105.04 336.385 103.865 336.705 103.33 Z M 366.946 66.679 L 369.938 62.832 L 368.014 58.557 C 366.946 56.207 365.129 53.963 363.954 53.428 C 357.329 50.971 357.435 50.971 355.085 56.634 C 351.558 64.862 354.23 70.205 361.71 70.419 C 362.885 70.525 365.129 68.923 366.946 66.679 Z" style="fill: rgb(255, 255, 255);"/>
  <path d="M 210.828 199.822 C 204.737 198.54 202.173 197.15 196.937 192.021 C 191.594 186.892 190.525 183.473 195.334 186.572 C 206.02 193.517 228.246 190.953 240.534 181.229 C 246.198 176.741 246.732 175.993 250.365 165.414 C 252.502 159.43 254.746 152.484 255.281 150.134 C 256.456 145.646 259.127 141.051 260.623 141.051 C 262.226 141.051 262.974 156.652 261.799 164.025 C 260.303 173.642 256.99 181.122 250.793 189.136 C 243.954 197.792 239.359 199.929 225.574 200.463 C 219.911 200.677 213.286 200.356 210.828 199.822 Z" style="fill: rgb(255, 255, 255);"/>
  <path d="M 157.934 127.801 C 154.194 124.595 152.378 119.679 154.835 119.679 C 155.37 119.679 156.118 118.825 156.438 117.756 C 157.293 115.191 162.743 113.268 167.337 114.016 C 170.223 114.55 171.719 115.619 173.749 118.718 C 175.138 120.962 176.313 123.099 176.313 123.419 C 176.313 123.633 174.497 125.557 172.36 127.694 C 167.017 132.502 163.277 132.609 157.934 127.801 Z" style="fill: rgb(255, 255, 255);"/>
  <path d="M 198.219 103.651 C 196.723 101.3 194.693 97.774 193.838 95.85 C 192.128 92.324 192.235 92.217 196.296 86.233 C 198.646 82.707 200.89 80.463 201.745 80.677 C 202.6 80.997 205.272 81.211 207.836 81.211 C 212.431 81.211 212.538 81.318 217.346 88.584 L 222.369 95.957 L 218.308 101.941 L 214.248 107.925 L 207.622 107.925 C 200.997 107.925 200.89 107.925 198.219 103.651 Z" style="fill: rgb(255, 255, 255);"/>
</svg>
